X: 8884
T: Cup Of Tea, The
R: reel
M: 4/4
K: Edorian
|:BAGF GEEF|GEBE GEEA|BAGF GEEG|FDAD FDDA|
BAGF GEEF|GEBE GEEA|BAGF GABc|dBAG FDDA:|
|:d2eg fdec|d2eg fBBc|d2eg fdec|dBAG FDDA|
d2eg fdec|d2eg f2fg|afge fdec|dBAG FDDA:|
|:FAdA FAdA|FAdF GEE2|FAdA B3c|dBAG FDDA|
FAdA FAdA|FAde fee2|fedc dBAG|ABAG FDDA:|

